public/images/svg/logo.svg

<svg width="148" height="80" viewBox="0 0 148 80" fill="none" xmlns="http://www.w3.org/2000/svg">
<path d="M0.650574 73.6469C0.650574 69.804 3.56755 67.2677 8.05239 67.2677C9.83904 67.2677 11.9903 67.8057 12.6466 68.0363C13.0477 68.19 13.4488 68.0363 13.6676 67.6905L13.9957 67.8442L12.4643 71.2643C11.3705 70.6879 9.5838 70.3805 8.19824 70.3805C5.71881 70.4189 4.15094 71.5333 4.15094 73.6085C4.15094 75.7221 6.01051 77.0671 8.85456 77.0671C10.386 77.0671 11.9174 76.6828 12.5372 76.0679L13.8499 78.7964C12.0268 79.6418 10.386 79.9492 8.01593 79.9492C3.56755 79.9877 0.650574 77.4898 0.650574 73.6469Z" fill="white"/>
<path d="M27.8874 67.421V67.8053C27.5228 67.8053 27.1217 68.1512 27.1217 68.5739V79.8335H23.7672V75.4526C22.9286 75.7216 21.9806 75.8754 20.9596 75.8754C17.751 75.8754 15.8185 73.8386 15.8185 70.4953V68.5739C15.8185 68.1896 15.4903 67.8053 15.0892 67.8053V67.421H19.173V70.1495C19.173 72.0325 19.9387 73.0316 21.3607 73.0316C22.1994 73.0316 22.9651 72.8779 23.7672 72.5705V67.421H27.8874Z" fill="white"/>
<path d="M44.4049 79.4499V79.8341H39.8836L38.9721 77.3747H33.758L32.9193 79.8341H29.0908V79.4499C29.7107 79.373 30.1118 78.9503 30.4399 78.1433L33.9038 68.5361C34.0497 68.0749 33.9403 67.8444 33.5757 67.8444V67.4601H38.8262L43.2017 78.7197C43.4205 79.1809 43.7851 79.4499 44.4049 79.4499ZM38.1334 75.0305L36.3103 69.9579L34.5966 75.0305H38.1334Z" fill="white"/>
<path d="M44.0402 73.6467C44.0402 69.8038 46.9571 67.3059 51.442 67.3059C53.2286 67.3059 55.3799 67.8439 56.0362 68.0745C56.4373 68.2282 56.8384 68.0745 57.0571 67.7286L57.3853 67.8824L55.8539 71.3025C54.76 70.7261 52.9734 70.4187 51.5878 70.4187C49.1084 70.4571 47.5405 71.5715 47.5405 73.6467C47.5405 75.7603 49.4001 77.1053 52.2441 77.1053C53.7756 77.1053 55.307 76.721 55.9268 76.1061L57.2395 78.8346C55.4164 79.68 53.7756 79.9874 51.4055 79.9874C46.9571 79.9874 44.0402 77.4896 44.0402 73.6467Z" fill="white"/>
<path d="M71.0954 71.1102H70.7308C70.7308 70.5722 70.4755 70.3032 70.0015 70.3032H66.6105V78.6807C66.6105 79.1418 66.8658 79.4492 67.3398 79.4492V79.8335H63.256V70.3032H59.865C59.391 70.3416 59.1358 70.649 59.1358 71.1102H58.7712V67.421H71.1683V71.1102H71.0954Z" fill="white"/>
<path d="M73.2097 68.6123C73.2097 68.1896 72.8815 67.8437 72.444 67.8437V67.421H76.5642V71.8403H80.5751C83.091 71.8403 84.8411 73.5312 84.8411 75.8754C84.8411 78.2195 83.0545 79.8335 80.5751 79.8335H73.2097V68.6123ZM79.9552 77.2204C81.0855 77.2204 81.7783 76.7208 81.7783 75.9138C81.7783 75.0684 81.0855 74.5303 79.9552 74.5303H76.5642V77.2588H79.9552V77.2204Z" fill="white"/>
<path d="M98.2956 76.1828V79.872H87.1017V68.6123C87.1017 68.1512 86.81 67.8437 86.336 67.8437V67.421H98.0404V70.9949H97.6757C97.6757 70.5338 97.3476 70.1879 96.9465 70.1879H90.4562V72.1478H95.5609V74.7609H90.4562V76.9514H97.2382C97.6757 76.9129 97.931 76.6055 97.931 76.1444H98.2956V76.1828Z" fill="white"/>
<path d="M116.381 67.8437C115.907 67.8437 115.652 68.1127 115.652 68.6123V79.872H112.297V72.0709L108.177 78.9497L104.02 72.1093V79.872H100.994V68.6123C100.994 68.1512 100.739 67.8437 100.265 67.8437V67.421H104.895L108.286 72.9932L111.75 67.421H116.418V67.8437H116.381Z" fill="white"/>
<path d="M14.8354 58.2374C14.8354 60.7737 12.1007 62.0034 8.30864 62.0034C6.19383 62.0034 3.78733 61.3117 1.8913 59.5056L3.93318 57.3151C5.0635 58.6217 6.66784 59.0444 8.30864 59.0444C9.9859 59.0444 11.2256 58.6601 11.2256 57.8531C11.2256 57.123 10.6422 56.8924 8.60034 56.8924H5.90213V54.2792H8.60034C10.387 54.2792 11.0433 54.0487 11.0433 53.4338C11.0433 52.5884 9.87651 52.2809 8.16279 52.2809C6.59492 52.2809 5.24582 52.6652 4.11549 53.6644L1.92776 50.8207L2.21946 50.5901C2.58408 50.9744 2.76639 51.0512 3.27686 50.6669C4.51657 49.8215 6.23029 49.2835 8.23571 49.2835C11.5173 49.2835 14.3249 50.6285 14.3249 52.7037C14.3249 53.8181 13.4863 54.8941 12.3195 55.3552C13.8144 55.778 14.8354 56.8924 14.8354 58.2374Z" fill="white"/>
<path d="M30.2946 61.465V61.8493H25.8097L24.8982 59.3898H19.6841L18.8454 61.8493H15.0169V61.465C15.6368 61.3881 16.0378 60.9654 16.366 60.1584L19.8299 50.5512C19.9758 50.09 19.8664 49.8595 19.5018 49.8595V49.4752H24.7523L29.1278 60.7348C29.3465 61.196 29.7112 61.465 30.2946 61.465ZM24.0595 57.0457L22.2364 51.9731L20.5227 57.0457H24.0595Z" fill="white"/>
<path d="M31.8261 50.628C31.8261 50.1285 31.5709 49.8595 31.0604 49.8595V49.4752H39.1915C41.7074 49.4752 43.4576 51.0892 43.4576 53.4718C43.4576 55.8159 41.6709 57.4684 39.1915 57.4684H35.1442V61.8877H31.7897V50.628H31.8261ZM38.5716 54.8168C39.8113 54.8168 40.3947 54.3941 40.3947 53.3949C40.3947 52.5111 39.8478 52.0883 38.5716 52.0883H35.1807V54.8168H38.5716Z" fill="white"/>
<path d="M58.3341 49.4363V49.8591C57.8601 49.8591 57.5684 50.1281 57.5684 50.6276V61.8873H54.2139V57.3911H52.2449L49.0727 61.8873H44.6973V61.503C45.1348 61.503 45.5724 61.234 45.9005 60.7344L48.5622 57.0068C46.8485 56.3919 45.7911 55.0854 45.7911 53.4329C45.7911 51.1656 47.7236 49.5132 50.4583 49.5132H58.3341V49.4363ZM54.2139 52.0879H51.1511C49.9478 52.0879 49.2186 52.5491 49.2186 53.5098C49.2186 54.3552 49.7655 54.8548 50.9323 54.8548H54.2139V52.0879Z" fill="white"/>
<path d="M79.3359 61.4646V61.8488H75.1792L71.1319 56.1614V60.5038C71.1319 61.0803 71.3871 61.3877 71.8611 61.3877V61.8104H67.0117V61.3877C67.4857 61.3877 67.7409 61.0418 67.7409 60.5038V56.2767L63.7665 61.8488H59.6098V61.4646C60.0474 61.4646 60.4849 61.1956 60.8131 60.696L64.6416 55.2775L61.4694 50.8966C60.9589 50.2049 60.3755 49.8591 59.7192 49.8591V49.4363H63.8759L67.7409 54.7779V50.7813C67.7409 50.2049 67.4857 49.8975 67.0117 49.8975V49.4748H71.8611V49.8975C71.3871 49.8975 71.1319 50.2433 71.1319 50.7813V54.8932L75.0698 49.4748H79.2265V49.8975C78.5702 49.8975 77.9868 50.2433 77.4763 50.9351L74.3041 55.3159L78.1326 60.7344C78.4608 61.1956 78.8983 61.4646 79.3359 61.4646Z" fill="white"/>
<path d="M94.9782 61.465V61.8493H90.4569L89.5453 59.3898H84.3312L83.4926 61.8493H79.6276V61.465C80.2475 61.3881 80.6486 60.9654 80.9767 60.1584L84.4406 50.5512C84.5865 50.09 84.4771 49.8595 84.1125 49.8595V49.4752H89.363L93.7385 60.7348C93.9937 61.196 94.3583 61.465 94.9782 61.465ZM88.7067 57.0457L86.8836 51.9731L85.1699 57.0457H88.7067Z" fill="white"/>
<path d="M107.631 58.1981V61.8873H96.4369V50.6276C96.4369 50.1665 96.1452 49.8591 95.6711 49.8591V49.4363H107.376V53.0486H107.011C107.011 52.5875 106.683 52.2416 106.282 52.2416H99.7914V54.2015H104.896V56.8147H99.7914V59.0051H106.573C107.011 58.9667 107.266 58.6592 107.266 58.1981H107.631Z" fill="white"/>
<path d="M125.716 49.8591C125.242 49.8591 124.987 50.1281 124.987 50.6276V61.8873H121.632V54.0862L117.512 60.965L113.319 54.1247V61.8873H110.292V50.6276C110.292 50.1665 110.037 49.8591 109.563 49.8591V49.4363H114.194L117.585 55.0085L121.049 49.4363H125.716V49.8591Z" fill="white"/>
<path d="M138.951 44.8253H147.192L146.025 42.7502H140.082L138.951 44.8253Z" fill="white"/>
<path d="M142.16 45.6706L143.291 47.7841H146.025L147.192 45.6706H142.16Z" fill="white"/>
<path d="M137.566 45.6706H129.326L130.492 47.7841H136.436L137.566 45.6706Z" fill="white"/>
<path d="M133.227 42.7502H130.492L129.326 44.8253H134.357L133.227 42.7502Z" fill="white"/>
<path d="M142.817 41.9048L144.202 39.4069L143.072 37.3317L140.556 41.9048H142.817Z" fill="white"/>
<path d="M138.259 46.0933L134.139 53.6254H136.436L139.389 48.1685L138.259 46.0933Z" fill="white"/>
<path d="M133.701 48.5912L132.315 51.089L133.446 53.2026L135.962 48.5912H133.701Z" fill="white"/>
<path d="M137.566 44.8253L133.446 37.3317L132.315 39.4069L135.269 44.8253H137.566Z" fill="white"/>
<path d="M138.733 51.0891L140.082 53.6254H142.379L139.863 49.014L138.733 51.0891Z" fill="white"/>
<path d="M138.951 45.6706L143.072 53.2026L144.202 51.089L141.249 45.6706H138.951Z" fill="white"/>
<path d="M142.379 36.909H140.082L138.259 40.2523L136.436 36.909H134.139L138.259 44.441L142.379 36.909Z" fill="white"/>
<path d="M63.829 0.49369H10.0817C5.82449 0.49369 2.33594 4.1704 2.33594 8.65723V24.9843C2.33594 29.4711 5.82449 33.1478 10.0817 33.1478H63.7994C68.0567 33.1478 71.5452 29.4711 71.5452 24.9843V8.65723C71.5748 4.1704 68.0862 0.49369 63.829 0.49369Z" fill="white"/>
<path d="M10.0812 27.7266C8.66217 27.7266 7.47961 26.5114 7.47961 24.9846V8.65756C7.47961 7.16195 8.63261 5.9156 10.0812 5.9156H19.2756V27.6954H10.0812V27.7266Z" fill="url(#paint0_linear)"/>
<path d="M31.043 5.94647H19.2766V27.7263H31.043V5.94647Z" fill="url(#paint1_linear)"/>
<path d="M42.8383 5.94647H31.0718V27.7263H42.8383V5.94647Z" fill="url(#paint2_linear)"/>
<path d="M54.6049 5.94647H42.8385V27.7263H54.6049V5.94647Z" fill="url(#paint3_linear)"/>
<path d="M63.8282 27.7263H54.6338V5.94647H63.8282C65.2472 5.94647 66.4298 7.16165 66.4298 8.68842V25.0155C66.4002 26.5111 65.2472 27.7263 63.8282 27.7263Z" fill="url(#paint4_linear)"/>
<path d="M74.8268 20.2793C74.8268 21.0271 74.2355 21.6503 73.526 21.6503H70.8357C70.1261 21.6503 69.5349 21.0271 69.5349 20.2793V12.9571C69.5349 12.2093 70.1261 11.5861 70.8357 11.5861H73.526C74.2355 11.5861 74.8268 12.2093 74.8268 12.9571V20.2793Z" fill="white"/>
<path d="M4.64171 23.0216C4.64171 23.7694 4.05043 24.3926 3.34089 24.3926H1.95139C1.24185 24.3926 0.650574 23.7694 0.650574 23.0216V10.2466C0.650574 9.49883 1.24185 8.87566 1.95139 8.87566H3.34089C4.05043 8.87566 4.64171 9.49883 4.64171 10.2466V23.0216Z" fill="white"/>
<defs>
<linearGradient id="paint0_linear" x1="13.3976" y1="27.7367" x2="13.3976" y2="5.94611" gradientUnits="userSpaceOnUse">
<stop stop-color="#FC3F66"/>
<stop offset="0.1721" stop-color="#FD5160"/>
<stop offset="0.3941" stop-color="#FD615C"/>
<stop offset="0.6477" stop-color="#FE6A59"/>
<stop offset="1" stop-color="#FE6D58"/>
</linearGradient>
<linearGradient id="paint1_linear" x1="25.1781" y1="27.7364" x2="25.1781" y2="5.94582" gradientUnits="userSpaceOnUse">
<stop stop-color="#6E3CF6"/>
<stop offset="0.00517076" stop-color="#703CF5"/>
<stop offset="0.1335" stop-color="#9247E1"/>
<stop offset="0.2686" stop-color="#AF50D1"/>
<stop offset="0.4136" stop-color="#C556C4"/>
<stop offset="0.5712" stop-color="#D55BBB"/>
<stop offset="0.7507" stop-color="#DE5EB6"/>
<stop offset="1" stop-color="#E15FB4"/>
</linearGradient>
<linearGradient id="paint2_linear" x1="36.957" y1="27.7364" x2="36.957" y2="5.94582" gradientUnits="userSpaceOnUse">
<stop stop-color="#4A3BF6"/>
<stop offset="1" stop-color="#458EFA"/>
</linearGradient>
<linearGradient id="paint3_linear" x1="48.7368" y1="27.7364" x2="48.7368" y2="5.94582" gradientUnits="userSpaceOnUse">
<stop stop-color="#2C63FA"/>
<stop offset="0.1249" stop-color="#2884FB"/>
<stop offset="0.2613" stop-color="#24A1FD"/>
<stop offset="0.4077" stop-color="#21B7FE"/>
<stop offset="0.5669" stop-color="#1FC7FE"/>
<stop offset="0.7482" stop-color="#1DD0FF"/>
<stop offset="1" stop-color="#1DD3FF"/>
</linearGradient>
<linearGradient id="paint4_linear" x1="60.5157" y1="27.7364" x2="60.5157" y2="5.94582" gradientUnits="userSpaceOnUse">
<stop stop-color="#00ACFA"/>
<stop offset="0.0200129" stop-color="#00B0FA"/>
<stop offset="0.1729" stop-color="#00CDFC"/>
<stop offset="0.3368" stop-color="#00E3FD"/>
<stop offset="0.5151" stop-color="#00F3FE"/>
<stop offset="0.7181" stop-color="#00FCFF"/>
<stop offset="1" stop-color="#00FFFF"/>
</linearGradient>
</defs>
</svg>

<svg width="148" height="80" fill="none" xmlns="http://www.w3.org/2000/svg"><path d="M.65 73.647c0-3.843 2.918-6.38 7.402-6.38 1.787 0 3.938.539 4.595.77.4.153.802 0 1.02-.347l.329.154-1.532 3.42c-1.094-.576-2.88-.883-4.266-.883-2.48.038-4.047 1.152-4.047 3.228 0 2.113 1.86 3.458 4.704 3.458 1.531 0 3.062-.384 3.682-1l1.313 2.73c-1.823.845-3.464 1.152-5.834 1.152C3.568 79.988.65 77.49.65 73.647zM27.887 67.421v.384c-.364 0-.765.346-.765.769v11.26h-3.355v-4.381a9.209 9.209 0 01-2.807.422c-3.209 0-5.142-2.036-5.142-5.38v-1.921c0-.384-.328-.769-.729-.769v-.384h4.084v2.728c0 1.883.766 2.883 2.188 2.883.838 0 1.604-.154 2.406-.462v-5.149h4.12zM44.405 79.45v.384h-4.521l-.912-2.46h-5.214l-.839 2.46h-3.828v-.384c.62-.077 1.02-.5 1.349-1.307l3.464-9.607c.146-.461.036-.692-.328-.692v-.384h5.25l4.376 11.26c.218.46.583.73 1.203.73zm-6.272-4.42l-1.823-5.072-1.713 5.073h3.536zM44.04 73.647c0-3.843 2.917-6.341 7.402-6.341 1.787 0 3.938.538 4.594.769.401.153.802 0 1.021-.346l.328.153-1.531 3.42c-1.094-.576-2.88-.883-4.266-.883-2.48.038-4.047 1.153-4.047 3.228 0 2.113 1.86 3.458 4.703 3.458 1.532 0 3.063-.384 3.683-.999l1.313 2.729c-1.824.845-3.464 1.152-5.834 1.152-4.449 0-7.366-2.497-7.366-6.34zM71.095 71.11h-.364c0-.538-.255-.807-.73-.807h-3.39v8.378c0 .46.255.768.729.768v.385h-4.084v-9.53h-3.391c-.474.038-.73.345-.73.806h-.364v-3.689h12.397v3.69h-.073zM73.21 68.612a.76.76 0 00-.766-.768v-.423h4.12v4.42h4.011c2.516 0 4.266 1.69 4.266 4.034s-1.786 3.959-4.266 3.959H73.21V68.612zm6.745 8.608c1.13 0 1.823-.5 1.823-1.306 0-.846-.693-1.384-1.823-1.384h-3.39v2.729h3.39v-.039zM98.296 76.183v3.689H87.102v-11.26c0-.46-.292-.768-.766-.768v-.423H98.04v3.574h-.364c0-.461-.328-.807-.73-.807h-6.49v1.96h5.105v2.613h-5.105v2.19h6.782c.438-.038.693-.345.693-.807h.365v.039zM116.381 67.844c-.474 0-.729.269-.729.768v11.26h-3.355v-7.801l-4.12 6.879-4.157-6.84v7.762h-3.026v-11.26c0-.46-.255-.768-.729-.768v-.423h4.63l3.391 5.572 3.464-5.572h4.668v.423h-.037zM14.835 58.237c0 2.537-2.734 3.766-6.526 3.766-2.115 0-4.522-.691-6.418-2.497l2.042-2.19c1.13 1.306 2.735 1.728 4.376 1.728 1.677 0 2.917-.384 2.917-1.19 0-.731-.584-.962-2.626-.962H5.902V54.28H8.6c1.787 0 2.443-.23 2.443-.845 0-.846-1.166-1.153-2.88-1.153-1.568 0-2.917.384-4.048 1.383l-2.187-2.843.291-.23c.365.383.547.46 1.058.076 1.24-.846 2.953-1.384 4.959-1.384 3.281 0 6.089 1.346 6.089 3.42 0 1.115-.839 2.191-2.005 2.652 1.494.423 2.515 1.537 2.515 2.882zM30.295 61.465v.384H25.81l-.912-2.46h-5.214l-.839 2.46h-3.828v-.384c.62-.077 1.02-.5 1.349-1.307l3.464-9.607c.146-.461.036-.692-.328-.692v-.384h5.25l4.376 11.26c.218.461.583.73 1.167.73zm-6.236-4.42l-1.823-5.072-1.713 5.073h3.537zM31.826 50.628c0-.5-.255-.769-.766-.769v-.384h8.131c2.516 0 4.267 1.614 4.267 3.997 0 2.344-1.787 3.996-4.267 3.996h-4.047v4.42H31.79v-11.26h.036zm6.746 4.189c1.24 0 1.823-.423 1.823-1.422 0-.884-.547-1.307-1.823-1.307H35.18v2.729h3.39zM58.334 49.436v.423c-.474 0-.766.27-.766.769v11.26h-3.354V57.39h-1.97l-3.171 4.496h-4.376v-.384c.438 0 .875-.269 1.203-.769l2.662-3.727c-1.713-.615-2.77-1.922-2.77-3.574 0-2.267 1.932-3.92 4.666-3.92h7.876v-.077zm-4.12 2.652H51.15c-1.203 0-1.932.461-1.932 1.422 0 .845.547 1.345 1.713 1.345h3.282v-2.767zM79.336 61.465v.384h-4.157l-4.047-5.688v4.343c0 .576.255.884.73.884v.422h-4.85v-.422c.474 0 .729-.346.729-.884v-4.227l-3.974 5.572H59.61v-.384c.437 0 .875-.27 1.203-.769l3.829-5.418-3.173-4.381c-.51-.692-1.093-1.038-1.75-1.038v-.423h4.157l3.865 5.342V50.78c0-.576-.255-.883-.73-.883v-.423h4.85v.422c-.474 0-.73.346-.73.884v4.112l3.939-5.418h4.157v.422c-.657 0-1.24.346-1.75 1.038l-3.173 4.38 3.829 5.42c.328.46.765.73 1.203.73zM94.978 61.465v.384h-4.521l-.912-2.46h-5.214l-.838 2.46h-3.865v-.384c.62-.077 1.02-.5 1.349-1.307l3.464-9.607c.145-.461.036-.692-.329-.692v-.384h5.251l4.376 11.26c.255.461.62.73 1.24.73zm-6.271-4.42l-1.823-5.072-1.714 5.073h3.537zM107.631 58.198v3.69H96.437v-11.26c0-.462-.292-.769-.766-.769v-.423h11.705v3.613h-.365c0-.462-.328-.807-.729-.807h-6.49v1.96h5.104v2.613h-5.105v2.19h6.782c.438-.038.693-.346.693-.807h.365zM125.716 49.86c-.474 0-.729.268-.729.768v11.26h-3.355v-7.802l-4.12 6.879-4.193-6.84v7.762h-3.027v-11.26c0-.46-.255-.768-.729-.768v-.423h4.631l3.391 5.572 3.464-5.572h4.667v.423zM138.951 44.825h8.241l-1.167-2.075h-5.943l-1.131 2.075zM142.16 45.67l1.131 2.114h2.734l1.167-2.113h-5.032zM137.566 45.67h-8.24l1.166 2.114h5.944l1.13-2.113zM133.227 42.75h-2.735l-1.166 2.075h5.031l-1.13-2.075zM142.817 41.905l1.385-2.498-1.13-2.075-2.516 4.573h2.261zM138.259 46.093l-4.12 7.532h2.297l2.953-5.456-1.13-2.076zM133.701 48.591l-1.386 2.498 1.131 2.114 2.516-4.612h-2.261zM137.566 44.825l-4.12-7.493-1.131 2.075 2.954 5.418h2.297zM138.733 51.09l1.349 2.535h2.297l-2.516-4.611-1.13 2.075zM138.951 45.67l4.121 7.533 1.13-2.114-2.953-5.418h-2.298zM142.379 36.909h-2.297l-1.823 3.343-1.823-3.343h-2.297l4.12 7.532 4.12-7.532zM63.829.494H10.082c-4.258 0-7.746 3.676-7.746 8.163v16.327c0 4.487 3.488 8.164 7.746 8.164h53.717c4.258 0 7.746-3.677 7.746-8.164V8.657C71.575 4.17 68.086.494 63.83.494z" fill="#fff"/><path d="M10.081 27.727c-1.419 0-2.601-1.216-2.601-2.742V8.658c0-1.496 1.153-2.742 2.601-2.742h9.195v21.78H10.08v.03z" fill="url(#paint0_linear)"/><path d="M31.043 5.946H19.277v21.78h11.766V5.946z" fill="url(#paint1_linear)"/><path d="M42.838 5.946H31.072v21.78h11.766V5.946z" fill="url(#paint2_linear)"/><path d="M54.605 5.946H42.839v21.78h11.766V5.946z" fill="url(#paint3_linear)"/><path d="M63.828 27.726h-9.194V5.946h9.194c1.42 0 2.602 1.216 2.602 2.742v16.328c-.03 1.495-1.183 2.71-2.602 2.71z" fill="url(#paint4_linear)"/><path d="M74.827 20.28c0 .747-.591 1.37-1.301 1.37h-2.69c-.71 0-1.301-.623-1.301-1.37v-7.323c0-.748.591-1.37 1.3-1.37h2.691c.71 0 1.3.622 1.3 1.37v7.322zM4.642 23.022c0 .747-.592 1.37-1.301 1.37H1.95c-.71 0-1.3-.623-1.3-1.37V10.247c0-.748.59-1.371 1.3-1.371h1.39c.71 0 1.3.623 1.3 1.37v12.776z" fill="#fff"/><defs><linearGradient id="paint0_linear" x1="13.398" y1="27.737" x2="13.398" y2="5.946" gradientUnits="userSpaceOnUse"><stop stop-color="#FC3F66"/><stop offset=".172" stop-color="#FD5160"/><stop offset=".394" stop-color="#FD615C"/><stop offset=".648" stop-color="#FE6A59"/><stop offset="1" stop-color="#FE6D58"/></linearGradient><linearGradient id="paint1_linear" x1="25.178" y1="27.736" x2="25.178" y2="5.946" gradientUnits="userSpaceOnUse"><stop stop-color="#6E3CF6"/><stop offset=".005" stop-color="#703CF5"/><stop offset=".134" stop-color="#9247E1"/><stop offset=".269" stop-color="#AF50D1"/><stop offset=".414" stop-color="#C556C4"/><stop offset=".571" stop-color="#D55BBB"/><stop offset=".751" stop-color="#DE5EB6"/><stop offset="1" stop-color="#E15FB4"/></linearGradient><linearGradient id="paint2_linear" x1="36.957" y1="27.736" x2="36.957" y2="5.946" gradientUnits="userSpaceOnUse"><stop stop-color="#4A3BF6"/><stop offset="1" stop-color="#458EFA"/></linearGradient><linearGradient id="paint3_linear" x1="48.737" y1="27.736" x2="48.737" y2="5.946" gradientUnits="userSpaceOnUse"><stop stop-color="#2C63FA"/><stop offset=".125" stop-color="#2884FB"/><stop offset=".261" stop-color="#24A1FD"/><stop offset=".408" stop-color="#21B7FE"/><stop offset=".567" stop-color="#1FC7FE"/><stop offset=".748" stop-color="#1DD0FF"/><stop offset="1" stop-color="#1DD3FF"/></linearGradient><linearGradient id="paint4_linear" x1="60.516" y1="27.736" x2="60.516" y2="5.946" gradientUnits="userSpaceOnUse"><stop stop-color="#00ACFA"/><stop offset=".02" stop-color="#00B0FA"/><stop offset=".173" stop-color="#00CDFC"/><stop offset=".337" stop-color="#00E3FD"/><stop offset=".515" stop-color="#00F3FE"/><stop offset=".718" stop-color="#00FCFF"/><stop offset="1" stop-color="#0FF"/></linearGradient></defs></svg>
